app/dist/common/images/johnson-matthey.svg

<svg height="18" viewBox="0 0 18 18" width="18" xmlns="http://www.w3.org/2000/svg"><path d="m0 0h18v18h-18z" fill="#1e22aa"/><path d="m10.98 11-1.98-5h-1v6h1v-3.8l1.48 3.8h1l1.52-3.8v3.8h1v-6h-1zm-4.98-5h1v3.61c-.02 1.39-.98 2.39-2.32 2.39a2.3 2.3 0 0 1 -1.64-.54c-.33-.3-.42-.7-.54-1.15l.8-.28c.17.63.73.97 1.39.97.8 0 1.31-.57 1.31-1.38z" fill="#fff"/></svg>

<!-- by TradingView --><svg width="18" height="18" viewBox="0 0 18 18" xmlns="http://www.w3.org/2000/svg"><path fill="#1E22AA" d="M0 0h18v18H0z"/><path d="M10.98 11 9 6H8v6h1V8.2l1.48 3.8h1L13 8.2V12h1V6h-1l-2.02 5ZM6 6h1v3.61C6.98 11 6.02 12 4.68 12a2.3 2.3 0 0 1-1.64-.54c-.33-.3-.42-.7-.54-1.15l.8-.28c.17.63.73.97 1.39.97.8 0 1.31-.57 1.31-1.38V6Z" fill="#fff"/></svg>
